src/assets/css.svg

<svg width="61" height="61" viewBox="0 0 61 61" fill="none" xmlns="http://www.w3.org/2000/svg">
<path d="M11.5667 51.5019L7.35547 4.25H53.6455L49.4286 51.4944L30.4723 56.75L11.5667 51.5019Z" fill="#1572B6"/>
<path d="M30.5 52.7336L45.8188 48.4868L49.4225 8.11426H30.5V52.7336Z" fill="#33A9DC"/>
<path d="M30.5 25.2329H38.1688L38.6975 19.2986H30.5V13.5029H30.5206H45.0312L44.8925 15.0573L43.4694 31.0286H30.5V25.2329Z" fill="white"/>
<path d="M30.5348 40.2839L30.5086 40.2914L24.0548 38.5477L23.6423 33.9258H20.5055H17.8242L18.6361 43.0252L30.5067 46.3214L30.5348 46.3139V40.2839Z" fill="#EBEBEB"/>
<path d="M37.6763 30.7832L36.9788 38.5438L30.5156 40.2876V46.3176L42.3956 43.0251L42.4838 42.0463L43.4906 30.7832H37.6763Z" fill="white"/>
<path d="M30.522 13.5029V17.1029V19.2836V19.2986H16.542H16.5233L16.407 17.9954L16.1427 15.0573L16.0039 13.5029H30.522Z" fill="#EBEBEB"/>
<path d="M30.5 25.2329V28.8329V31.0135V31.0285H24.1456H24.1269L24.0106 29.7254L23.7481 26.7873L23.6094 25.2329H30.5Z" fill="#EBEBEB"/>
</svg>

<svg width="61" height="61" fill="none" xmlns="http://www.w3.org/2000/svg"><path d="M11.567 51.502 7.355 4.25h46.29L49.43 51.494 30.472 56.75l-18.905-5.248Z" fill="#1572B6"/><path d="m30.5 52.734 15.319-4.247 3.603-40.373H30.5v44.62Z" fill="#33A9DC"/><path d="M30.5 25.233h7.669l.529-5.934H30.5v-5.796H45.031l-.139 1.554L43.47 31.03H30.5v-5.796Z" fill="#fff"/><path d="m30.535 40.284-.026.007-6.454-1.743-.413-4.622h-5.818l.812 9.1 11.87 3.295.029-.007v-6.03Z" fill="#EBEBEB"/><path d="m37.676 30.783-.697 7.76-6.463 1.745v6.03l11.88-3.293.088-.979 1.007-11.263h-5.815Z" fill="#fff"/><path d="M30.522 13.503v5.796H16.523l-.116-1.304-.264-2.938-.14-1.554h14.519ZM30.5 25.233v5.795h-6.374l-.115-1.303-.263-2.938-.139-1.554H30.5Z" fill="#EBEBEB"/></svg>
